X:1
T:The Christmas Bells Peal Merrily
T:The Christmas Bells Peal Merrily
T:Elisha Albright Hoffman
T:Elisha Albright Hoffman, 1894
T:Public Domain Courtesy of the Cyber Hymnal™
C:Elisha Albright Hoffman
Z:Public Domain
Z:Courtesy of the Cyber Hymnal™
%%score ( 1 2 ) ( 3 4 )
L:1/8
Q:1/4=110
M:4/4
K:Bb
V:1 treble 
V:2 treble 
V:3 bass 
V:4 bass 
V:1
 [DF]2 | [DB]2 [EB]2 [FB]2 [DB]2 | [EG]2 [EG]2 ([DF]2 [DF]2) | [DB]4 [Fc]4 | [Fd]4 [Fc]2 [DF]2 | %5
w: 1.~The|Christ- mas bells peal|mer- ri- ly, *|Ring- ing,|ring- ing And|
w: 2.~Sing|songs of praise to|God a- bove, *|Sing them,|sing them, Bring|
w: 3.~Once|more your voic- es|swell in song, *|Prais- ing,|prais- ing, Ho-|
 [DB]2 [EB]2 [FB]2 [DB]2 | [EG]2 [EG]2 [DF]2 [DF]2 | [FB]4 [EA]4 | [DB]6 z2 || %9
w: child- ren’s voic- es,|cheer- i- ly send|Praise to|God.|
w: of- fer- ings of|faith and love This|ho- ly|day.|
w: san- nas from the|child- ren throng Un-|to the|Lord.|
"^Refrain" [DB]2 [EB]2 F2 [DF]2 | [EG]2 [EG]2 [DF]2 [DF]2 | [FB]2 [DB]2 [Fc]2 [Fc]2 | %12
w: |||
w: Ring and sing the|pre- cious sto- ry,|Tell that Christ the|
w: |||
 [Fd]2 [Fd]2 [Fc]4 | [DB]2 [EB]2 F2 [DF]2 | [EG]2 [EG]2 [DF]2 [DF]2 | [FB]2 [FB]2 [EA]2 [EA]2 | %16
w: ||||
w: Lord was born,|Born a- mid the|won- drous glo- ry,|On this hap- py|
w: ||||
 [DB]6 |] %17
w: |
w: morn.|
w: |
V:2
 x2 | x8 | x8 | x8 | x8 | x8 | x8 | x8 | x8 || x4 F2 x2 | x8 | x8 | x8 | x4 F2 x2 | x8 | x8 | x6 |] %17
V:3
 [B,,B,]2 | [B,,B,]2 [C,B,]2 [D,B,]2 [B,,B,]2 | [E,B,]2 [B,,B,]2 ([B,,B,]2 [B,,B,]2) | %3
 B,4 [F,A,]4 | B,4 [F,A,]2 [B,,B,]2 | [B,,B,]2 [C,B,]2 [D,B,]2 [B,,B,]2 | %6
 [E,B,]2 [B,,B,]2 [B,,B,]2 [B,,B,]2 | [F,D]4 [F,C]4 | [B,,B,]6 z2 || %9
 [B,,B,]2 [C,B,]2 [D,B,]2 [B,,B,]2 | [E,B,]2 [G,B,]2 B,2 [B,,B,]2 | %11
 [D,B,]2 [G,B,]2 [F,A,]2 [F,A,]2 | B,2 [D,B,]2 [F,A,]4 | [B,,B,]2 [C,B,]2 [D,B,]2 [B,,B,]2 | %14
 [E,B,]2 [G,B,]2 B,2 [B,,B,]2 | [F,D]2 [F,D]2 [F,C]2 [F,C]2 | [B,,B,]6 |] %17
V:4
 x2 | x8 | x8 | B,,2 G,2 x4 | B,4 x4 | x8 | x8 | x8 | x8 || x8 | x4 B,2 x2 | x8 | B,2 x6 | x8 | %14
 x4 B,2 x2 | x8 | x6 |] %17

